lib/brands/logos/alert-media.svg

<svg xmlns="http://www.w3.org/2000/svg" fill="none" aria-hidden="true" viewBox="0 0 225 53"><g id="AlertMedia"><g id="Group"><g id="Group_2"><path id="Vector" fill="#D64130" d="M45.417 5.30593H13.3446C10.4605 5.30593 8.1225 7.64396 8.1225 10.5281V43.353C8.1225 46.2371 10.4605 48.5752 13.3446 48.5752H45.417C48.3011 48.5752 50.6391 46.2371 50.6391 43.353V10.5281C50.6391 7.64396 48.3011 5.30593 45.417 5.30593Z"/><path id="Vector_2" fill="white" fill-rule="evenodd" d="M17.6009 36.0674C15.223 33.6142 13.8987 30.3185 13.8987 26.85C13.8987 23.3794 15.2249 20.0811 17.6064 17.6276C17.7624 17.4665 18.0169 17.4665 18.1726 17.6276L18.772 18.2451C18.9277 18.4059 18.9277 18.6678 18.772 18.8286C16.7006 20.9635 15.5473 23.8312 15.5473 26.85C15.5473 29.8673 16.6986 32.7329 18.7668 34.8667C18.9229 35.0274 18.9229 35.2896 18.7668 35.4504L18.1675 36.0677C18.0117 36.2282 17.7573 36.2282 17.6009 36.0674ZM22.2882 31.9349C20.9774 30.581 20.2468 28.763 20.2468 26.8497C20.2468 24.9347 20.9793 23.1137 22.2933 21.7598C22.4445 21.604 22.6909 21.604 22.8424 21.7598L23.4777 22.4147C23.599 22.5393 23.599 22.7427 23.4777 22.8674L23.4232 22.9241C22.4091 23.9688 21.8448 25.3723 21.8448 26.8497C21.8448 28.3256 22.4071 29.7265 23.4184 30.7715C23.569 30.927 23.569 31.1809 23.4184 31.3367L22.8376 31.9352C22.762 32.0128 22.6698 32.0522 22.5629 32.0522C22.4559 32.0522 22.3637 32.0131 22.2882 31.9349ZM38.7963 33.9178C38.6428 34.076 38.3923 34.0762 38.2386 33.9175L37.6483 33.3096C37.4949 33.1515 37.4949 32.8934 37.6483 32.7353C39.1668 31.168 40.0112 29.0643 40.0112 26.8497C40.0112 24.6328 39.1648 22.5276 37.6432 20.96L37.5876 20.9027C37.4646 20.776 37.4646 20.5696 37.5876 20.4427L38.2334 19.7772C38.3872 19.6187 38.6376 19.6187 38.7914 19.7772C40.6174 21.659 41.6349 24.1883 41.6349 26.8497C41.6349 29.5093 40.6194 32.0366 38.7963 33.9178ZM41.1069 36.0674C40.9509 36.2282 40.6967 36.2282 40.5401 36.0677L39.941 35.4504C39.7847 35.2896 39.7847 35.0274 39.9405 34.8667C42.0092 32.7329 43.1603 29.8673 43.1603 26.85C43.1603 23.8312 42.0075 20.9635 39.9362 18.8286H39.9359C39.7798 18.6678 39.7798 18.4059 39.9359 18.2451L40.5352 17.6276C40.691 17.4665 40.9457 17.4665 41.1015 17.6276C43.4832 20.0811 44.8091 23.3794 44.8091 26.85C44.8091 30.3185 43.4852 33.6142 41.1069 36.0674ZM36.4203 31.9349C36.3444 32.0131 36.2522 32.0522 36.1453 32.0522C36.0383 32.0522 35.9464 32.0128 35.8711 31.9352L35.29 31.3367C35.1391 31.1809 35.1388 30.927 35.29 30.7715C36.3013 29.7265 36.8633 28.3256 36.8633 26.8497C36.8633 25.3723 36.2987 23.9688 35.2849 22.9241L35.2301 22.8674C35.1095 22.7427 35.1095 22.5393 35.2301 22.4147L35.866 21.7598C36.0172 21.604 36.2637 21.604 36.4148 21.7598C37.7291 23.1137 38.4613 24.9347 38.4613 26.8497C38.4613 28.763 37.7311 30.581 36.4203 31.9349ZM19.9116 33.9178C18.0887 32.0366 17.0732 29.5093 17.0732 26.8497C17.0732 24.1886 18.0905 21.6587 19.9167 19.7772C20.0705 19.6187 20.3212 19.6187 20.4747 19.7772L21.1203 20.4427C21.2432 20.5696 21.2432 20.776 21.1203 20.9027L21.0646 20.96C19.5433 22.5276 18.6969 24.6328 18.6969 26.8497C18.6969 29.0643 19.5413 31.168 21.0598 32.7353C21.2133 32.8934 21.2133 33.1515 21.0595 33.3096L20.4693 33.9175C20.3158 34.0762 20.0651 34.076 19.9116 33.9178ZM27.8429 14.242H30.8653C31.2601 14.242 31.6004 14.396 31.8677 14.6958C32.135 14.9959 32.2548 15.3581 32.2211 15.764L31.0022 30.4834C30.942 31.2118 30.3552 31.7665 29.6457 31.7665H29.0618C28.3526 31.7665 27.7658 31.2118 27.7057 30.4834L26.487 15.764C26.453 15.3583 26.5731 14.9959 26.8404 14.6958C27.1074 14.3963 27.4478 14.242 27.8429 14.242ZM29.3539 33.2826C31.0076 33.2826 32.3481 34.6635 32.3481 36.3675C32.3481 38.0715 31.0076 39.4524 29.3539 39.4524C27.7002 39.4524 26.3598 38.0718 26.3598 36.3675C26.36 34.6635 27.7002 33.2826 29.3539 33.2826Z" clip-rule="evenodd"/></g><g id="Vector_3"><path fill="#D64130" fill-rule="evenodd" d="M75.4733 33.9905H68.9921L67.3802 39.991H62.0744L68.9921 16.6132H75.7083L82.7268 39.991H77.2195L75.4733 33.9905ZM69.7309 30.0364H74.7345L73.3241 25.0764C72.9211 23.689 72.5181 21.9547 72.1823 20.5673H72.1152C71.7793 21.9547 71.4435 23.7237 71.0741 25.0764L69.7309 30.0364Z" clip-rule="evenodd"/><path fill="#D64130" fill-rule="evenodd" d="M84.4428 39.991H89.5472V15.3646H84.4428V39.991Z" clip-rule="evenodd"/><path fill="#D64130" fill-rule="evenodd" d="M107.475 33.2503H96.9868C97.1533 35.417 99.2177 36.4487 101.582 36.4487C103.313 36.4487 104.712 36.208 106.077 35.7609L106.743 39.3032C105.078 39.991 103.047 40.3349 100.849 40.3349C95.322 40.3349 92.1588 37.0334 92.1588 31.7715C92.1588 27.507 94.7226 22.7954 100.383 22.7954C105.644 22.7954 107.642 27.0255 107.642 31.1869C107.642 32.081 107.542 32.872 107.475 33.2503ZM96.9535 29.6737H102.947C102.947 28.4012 102.414 26.2689 100.083 26.2689C97.9524 26.2689 97.0867 28.2636 96.9535 29.6737Z" clip-rule="evenodd"/><path fill="#D64130" fill-rule="evenodd" d="M109.937 39.991H115.041V31.3891C115.041 30.9729 115.075 30.5567 115.142 30.2098C115.478 28.5796 116.754 27.539 118.634 27.539C119.205 27.539 119.642 27.6084 120.011 27.6778V22.7178C119.642 22.6485 119.407 22.6485 118.937 22.6485C117.358 22.6485 115.343 23.689 114.504 26.1516H114.37L114.202 23.03H109.802C109.87 24.4868 109.937 26.117 109.937 28.6143V39.991Z" clip-rule="evenodd"/><path fill="#D64130" fill-rule="evenodd" d="M123.83 19.3534V23.03H121.647V26.9147H123.83V33.8517C123.83 36.245 124.3 37.8752 125.24 38.8811C126.046 39.7482 127.423 40.3379 129.068 40.3379C130.512 40.3379 131.721 40.1644 132.393 39.8869L132.359 35.8982C131.99 35.9675 131.486 36.0369 130.848 36.0369C129.303 36.0369 128.833 35.1004 128.833 33.054V26.9147H132.494V23.03H128.833V18.1741L123.83 19.3534Z" clip-rule="evenodd"/></g><g id="Vector_4"><path fill="#676866" fill-rule="evenodd" d="M156.391 39.991H159.245L157.835 16.6132H154.108L150.078 27.9206C149.07 30.8688 148.264 33.4355 147.694 35.7941H147.593C147.022 33.3662 146.25 30.7995 145.309 27.9206L141.447 16.6132H137.72L136.142 39.991H138.929L139.533 29.967C139.735 26.4638 139.903 22.5444 139.97 19.6308H140.037C140.675 22.4057 141.582 25.4233 142.656 28.7183L146.317 39.8523H148.533L152.529 28.5102C153.671 25.2845 154.611 22.371 155.384 19.6308H155.484C155.451 22.5444 155.652 26.4638 155.82 29.7242L156.391 39.991Z" clip-rule="evenodd"/><path fill="#676866" fill-rule="evenodd" d="M176.625 32.1522H165.207C165.274 36.2797 167.826 37.9793 170.781 37.9793C172.897 37.9793 174.173 37.5977 175.281 37.1121L175.785 39.2973C174.744 39.7829 172.964 40.3379 170.378 40.3379C165.375 40.3379 162.386 36.9387 162.386 31.8747C162.386 26.8107 165.274 22.8219 170.009 22.8219C175.315 22.8219 176.725 27.6431 176.725 30.7301C176.725 31.3544 176.658 31.84 176.625 32.1522ZM165.241 29.967H173.871C173.905 28.0246 173.099 25.007 169.774 25.007C166.785 25.007 165.476 27.8512 165.241 29.967Z" clip-rule="evenodd"/><path fill="#676866" fill-rule="evenodd" d="M190.898 15.3646H193.853V35.6554C193.853 37.1468 193.887 38.8464 193.988 39.991H191.335L191.2 37.0775H191.133C190.227 38.9505 188.245 40.3725 185.592 40.3725C181.663 40.3725 178.641 36.9387 178.641 31.84C178.608 26.2557 181.966 22.8219 185.928 22.8219C188.413 22.8219 190.092 24.0359 190.831 25.3886H190.898V15.3646ZM190.898 32.9499V30.0364C190.898 29.6548 190.865 29.1346 190.764 28.753C190.327 26.8107 188.715 25.2152 186.499 25.2152C183.443 25.2152 181.63 27.99 181.63 31.7013C181.63 35.1004 183.242 37.9099 186.432 37.9099C188.413 37.9099 190.227 36.5572 190.764 34.268C190.865 33.8517 190.898 33.4355 190.898 32.9499Z" clip-rule="evenodd"/><path fill="#676866" fill-rule="evenodd" d="M201.142 39.991V23.2034H198.187V39.991H201.142Z" clip-rule="evenodd"/><path fill="#676866" fill-rule="evenodd" d="M199.665 16.2846C198.59 16.2846 197.818 17.1171 197.818 18.1923C197.818 19.2329 198.556 20.0653 199.597 20.0653C200.773 20.0653 201.512 19.2329 201.478 18.1923C201.478 17.1171 200.773 16.2846 199.665 16.2846Z" clip-rule="evenodd"/><path fill="#676866" fill-rule="evenodd" d="M216.878 39.991H214.191L213.956 37.8752H213.855C212.949 39.1932 211.202 40.3725 208.885 40.3725C205.594 40.3725 203.915 37.9793 203.915 35.5513C203.915 31.4932 207.408 29.2733 213.687 29.308V28.9611C213.687 27.5737 213.318 25.0764 209.993 25.0764C208.482 25.0764 206.904 25.562 205.762 26.3251L205.091 24.3133C206.434 23.4115 208.381 22.8219 210.43 22.8219C215.4 22.8219 216.609 26.3251 216.609 29.6895V35.9675C216.609 37.4243 216.676 38.8464 216.878 39.991ZM213.754 34.3373V31.4238C210.531 31.3544 206.87 31.9441 206.87 35.2045C206.87 37.1815 208.146 38.118 209.658 38.118C211.773 38.118 213.116 36.7306 213.587 35.3085C213.687 34.9963 213.754 34.6495 213.754 34.3373Z" clip-rule="evenodd"/></g></g></g></svg>

<svg xmlns="http://www.w3.org/2000/svg" fill="none" aria-hidden="true" viewBox="0 0 225 53"><path fill="#D64130" d="M45.417 5.306H13.345a5.222 5.222 0 0 0-5.223 5.222v32.825a5.222 5.222 0 0 0 5.223 5.222h32.072a5.222 5.222 0 0 0 5.222-5.222V10.528a5.222 5.222 0 0 0-5.222-5.222Z"/><path fill="#fff" fill-rule="evenodd" d="M17.6 36.067c-2.376-2.453-3.7-5.747-3.7-9.217 0-3.47 1.326-6.769 3.707-9.222a.392.392 0 0 1 .567 0l.599.617a.423.423 0 0 1 0 .584c-2.071 2.134-3.225 5.002-3.225 8.021 0 3.017 1.152 5.883 3.22 8.017a.422.422 0 0 1 0 .583l-.6.618a.393.393 0 0 1-.566 0Zm4.688-4.132a7.292 7.292 0 0 1-2.041-5.085 7.29 7.29 0 0 1 2.046-5.09.381.381 0 0 1 .55 0l.635.655a.327.327 0 0 1 0 .452l-.055.057a5.62 5.62 0 0 0-1.578 3.926c0 1.476.562 2.877 1.573 3.921a.41.41 0 0 1 0 .566l-.58.598a.37.37 0 0 1-.275.117.369.369 0 0 1-.275-.117Zm16.508 1.983a.387.387 0 0 1-.557 0l-.59-.608a.416.416 0 0 1 0-.575 8.434 8.434 0 0 0 2.362-5.885 8.431 8.431 0 0 0-2.368-5.89l-.055-.057a.333.333 0 0 1 0-.46l.645-.666a.387.387 0 0 1 .558 0 10.13 10.13 0 0 1 2.844 7.073 10.13 10.13 0 0 1-2.839 7.068Zm2.31 2.15a.394.394 0 0 1-.566 0l-.599-.618a.423.423 0 0 1 0-.583c2.068-2.134 3.22-5 3.22-8.017 0-3.019-1.154-5.887-3.225-8.021a.422.422 0 0 1 0-.584l.6-.617a.392.392 0 0 1 .566 0c2.381 2.453 3.707 5.751 3.707 9.222 0 3.468-1.324 6.764-3.702 9.217Zm-4.686-4.133a.37.37 0 0 1-.275.117.37.37 0 0 1-.274-.117l-.58-.598a.409.409 0 0 1 0-.566 5.622 5.622 0 0 0 1.572-3.921 5.62 5.62 0 0 0-1.578-3.926l-.055-.057a.328.328 0 0 1 0-.452l.636-.655a.38.38 0 0 1 .549 0 7.29 7.29 0 0 1 2.046 5.09c0 1.913-.73 3.731-2.04 5.085Zm-16.508 1.983a10.13 10.13 0 0 1-2.839-7.068c0-2.661 1.017-5.191 2.844-7.073a.387.387 0 0 1 .558 0l.645.666a.333.333 0 0 1 0 .46l-.055.057a8.432 8.432 0 0 0-2.368 5.89 8.43 8.43 0 0 0 2.363 5.885.415.415 0 0 1 0 .575l-.59.607a.387.387 0 0 1-.558 0Zm7.93-19.676h3.023a1.3 1.3 0 0 1 1.003.454c.267.3.387.662.353 1.068l-1.219 14.72c-.06.728-.647 1.282-1.356 1.282h-.584c-.71 0-1.296-.554-1.356-1.283l-1.219-14.719a1.382 1.382 0 0 1 .354-1.068 1.3 1.3 0 0 1 1.002-.454Zm1.512 19.04c1.654 0 2.994 1.382 2.994 3.086 0 1.703-1.34 3.084-2.994 3.084-1.654 0-2.994-1.38-2.994-3.084 0-1.705 1.34-3.085 2.994-3.085Z" clip-rule="evenodd"/><path fill="#D64130" fill-rule="evenodd" d="M75.473 33.99h-6.48l-1.613 6.001h-5.306l6.918-23.378h6.716l7.019 23.378h-5.508l-1.746-6Zm-5.742-3.954h5.004l-1.411-4.96c-.403-1.387-.806-3.121-1.142-4.509h-.067c-.336 1.388-.671 3.157-1.04 4.51l-1.344 4.96Zm14.712 9.955h5.104V15.365h-5.104V39.99Zm23.032-6.741H96.987c.166 2.167 2.23 3.199 4.595 3.199 1.731 0 3.13-.241 4.495-.688l.666 3.542c-1.665.688-3.696 1.032-5.894 1.032-5.527 0-8.69-3.302-8.69-8.564 0-4.264 2.564-8.976 8.224-8.976 5.261 0 7.259 4.23 7.259 8.392 0 .894-.1 1.685-.167 2.063Zm-10.521-3.576h5.993c0-1.273-.533-3.405-2.864-3.405-2.13 0-2.996 1.995-3.13 3.405Zm12.983 10.317h5.104v-8.602c0-.416.034-.832.101-1.18.336-1.63 1.612-2.67 3.492-2.67.571 0 1.008.07 1.377.139v-4.96c-.369-.07-.604-.07-1.074-.07-1.579 0-3.594 1.041-4.433 3.504h-.134l-.168-3.122h-4.4c.068 1.457.135 3.087.135 5.584v11.377Zm13.893-20.638v3.677h-2.183v3.885h2.183v6.937c0 2.393.47 4.023 1.41 5.03.806.866 2.183 1.456 3.828 1.456 1.444 0 2.653-.174 3.325-.451l-.034-3.989a8.08 8.08 0 0 1-1.511.139c-1.545 0-2.015-.937-2.015-2.983v-6.14h3.661V23.03h-3.661v-4.856l-5.003 1.18Z" clip-rule="evenodd"/><path fill="#676866" fill-rule="evenodd" d="M156.391 39.991h2.854l-1.41-23.378h-3.727l-4.03 11.308c-1.008 2.948-1.814 5.514-2.384 7.873h-.101c-.571-2.428-1.343-4.995-2.284-7.873l-3.862-11.308h-3.727l-1.578 23.378h2.787l.604-10.024c.202-3.503.37-7.423.437-10.336h.067c.638 2.775 1.545 5.792 2.619 9.087l3.661 11.134h2.216l3.996-11.342c1.142-3.226 2.082-6.139 2.855-8.88h.1c-.033 2.914.168 6.834.336 10.094l.571 10.267Zm20.234-7.839h-11.418c.067 4.128 2.619 5.827 5.574 5.827 2.116 0 3.392-.381 4.5-.867l.504 2.185c-1.041.486-2.821 1.04-5.407 1.04-5.003 0-7.992-3.398-7.992-8.462s2.888-9.053 7.623-9.053c5.306 0 6.716 4.821 6.716 7.908 0 .624-.067 1.11-.1 1.422Zm-11.384-2.185h8.63c.033-1.942-.772-4.96-4.097-4.96-2.989 0-4.298 2.844-4.533 4.96Zm25.657-14.602h2.955v20.29c0 1.492.034 3.191.135 4.336h-2.653l-.135-2.913h-.067c-.906 1.872-2.888 3.294-5.541 3.294-3.929 0-6.951-3.433-6.951-8.532-.033-5.584 3.325-9.018 7.287-9.018 2.485 0 4.164 1.214 4.903 2.567h.067V15.365Zm0 17.585v-2.914c0-.381-.033-.901-.134-1.283-.437-1.942-2.049-3.538-4.265-3.538-3.056 0-4.869 2.775-4.869 6.486 0 3.4 1.612 6.209 4.802 6.209 1.981 0 3.795-1.353 4.332-3.642.101-.416.134-.833.134-1.318Zm10.244 7.041V23.203h-2.955v16.788h2.955Zm-1.477-23.706c-1.075 0-1.847.832-1.847 1.907 0 1.04.738 1.873 1.779 1.873 1.176 0 1.915-.832 1.881-1.873 0-1.075-.705-1.907-1.813-1.907Zm17.212 23.706h-2.686l-.235-2.116h-.101c-.907 1.318-2.653 2.498-4.97 2.498-3.291 0-4.97-2.394-4.97-4.822 0-4.058 3.493-6.278 9.772-6.243v-.347c0-1.387-.369-3.885-3.694-3.885-1.511 0-3.089.486-4.231 1.25l-.671-2.013c1.343-.901 3.29-1.491 5.339-1.491 4.97 0 6.179 3.503 6.179 6.867v6.279c0 1.456.067 2.878.268 4.023Zm-3.123-5.654v-2.913c-3.223-.07-6.884.52-6.884 3.78 0 1.977 1.276 2.914 2.788 2.914 2.115 0 3.458-1.387 3.929-2.81.1-.312.167-.658.167-.97Z" clip-rule="evenodd"/></svg>
